assets/logo.svg

<svg fill="none" height="40" viewBox="0 0 214 40" width="214" xmlns="http://www.w3.org/2000/svg"><g clip-rule="evenodd" fill-rule="evenodd"><path d="m74.3538 31.3663c-1.634 0-3.1716-.295-4.6128-.8851s-2.6951-1.4128-3.7618-2.4681c-1.0667-1.0554-1.9121-2.3093-2.5362-3.7618s-.9362-3.0298-.9362-4.732c0-1.7021.3121-3.2794.9362-4.732.6241-1.4525 1.4695-2.7064 2.5362-3.7617 1.0667-1.05536 2.3206-1.87806 3.7618-2.46815 1.4412-.59008 2.9788-.88512 4.6128-.88512 1.6341 0 3.1717.29504 4.6129.88512 1.4411.59009 2.6951 1.41279 3.7617 2.46815 1.0667 1.0553 1.9121 2.3092 2.5363 3.7617.6241 1.4526.9361 3.0299.9361 4.732 0 1.7022-.312 3.2795-.9361 4.732-.6242 1.4525-1.4696 2.7064-2.5363 3.7618-1.0666 1.0553-2.3206 1.878-3.7617 2.4681-1.4412.5901-2.9788.8851-4.6129.8851z" fill="#2ab6ef"/><path d="m98.0482 31.3663c-1.6341 0-3.1717-.295-4.6129-.8851-1.4411-.5901-2.695-1.4128-3.7617-2.4681-1.0667-1.0554-1.9121-2.3093-2.5362-3.7618-.6242-1.4525-.9362-3.0298-.9362-4.732 0-1.7021.312-3.2794.9362-4.732.6241-1.4525 1.4695-2.7064 2.5362-3.7617 1.0667-1.05536 2.3206-1.87806 3.7617-2.46815 1.4412-.59008 2.9788-.88512 4.6129-.88512s3.1718.29504 4.6128.88512c1.441.59009 2.695 1.41279 3.762 2.46815 1.066 1.0553 1.912 2.3092 2.536 3.7617.624 1.4526.936 3.0299.936 4.732 0 1.7022-.312 3.2795-.936 4.732s-1.47 2.7064-2.536 3.7618c-1.067 1.0553-2.321 1.878-3.762 2.4681s-2.9787.8851-4.6128.8851z" fill="#2ecc71"/><path d="m177.705 31.3663c-1.634 0-3.172-.295-4.613-.8851s-2.695-1.4128-3.762-2.4681c-1.066-1.0554-1.912-2.3093-2.536-3.7618s-.936-3.0298-.936-4.732c0-1.7021.312-3.2794.936-4.732.624-1.4525 1.47-2.7064 2.536-3.7617 1.067-1.05536 2.321-1.87806 3.762-2.46815 1.441-.59008 2.979-.88512 4.613-.88512s3.172.29504 4.613.88512c1.441.59009 2.695 1.41279 3.762 2.46815 1.066 1.0553 1.912 2.3092 2.536 3.7617.624 1.4526.936 3.0299.936 4.732 0 1.7022-.312 3.2795-.936 4.732s-1.47 2.7064-2.536 3.7618c-1.067 1.0553-2.321 1.878-3.762 2.4681s-2.979.8851-4.613.8851z" fill="#e44786"/><path d="m153.898 31.3659c.038.0003.075.0004.113.0004 1.634 0 3.172-.295 4.613-.8851s2.695-1.4128 3.762-2.4681c1.066-1.0554 1.912-2.3093 2.536-3.7618s.936-3.0298.936-4.732c0-1.7021-.312-3.2794-.936-4.732-.624-1.4525-1.47-2.7064-2.536-3.7617-1.067-1.05537-2.321-1.87807-3.762-2.46815s-2.979-.88512-4.613-.88512c-.038 0-.075.00016-.113.00047z" fill="#efcb2a"/><path d="m201.399 31.4363c-1.634 0-3.171-.2959-4.613-.8877-1.441-.5919-2.695-1.417-3.761-2.4755-1.067-1.0584-1.912-2.316-2.537-3.7728-.624-1.4568-.936-3.0388-.936-4.746s.312-3.2891.936-4.746c.625-1.4568 1.47-2.7144 2.537-3.7728 1.066-1.05848 2.32-1.88361 3.761-2.47543 1.442-.59183 2.979-.88774 4.613-.88774s3.172.29591 4.613.88774c1.441.59182 2.695 1.41695 3.762 2.47543 1.067 1.0584 1.912 2.316 2.536 3.7728.624 1.4569.936 3.0388.936 4.746s-.312 3.2892-.936 4.746-1.469 2.7144-2.536 3.7728c-1.067 1.0585-2.321 1.8836-3.762 2.4755-1.441.5918-2.979.8877-4.613.8877z" fill="#d0021b"/><path d="m154.65 2.85774c-.197 0-.382-.03559-.556-.10676s-.325-.17039-.454-.29768c-.129-.12728-.231-.27852-.306-.45371-.075-.17518-.113-.36542-.113-.57072s.038-.39554.113-.570728.177-.326422.306-.453707c.129-.127284.28-.22651.454-.29768.174-.0711705.359-.106755.556-.106755s.383.0355845.556.106755c.174.07117.325.170396.454.29768.129.127285.231.278519.306.453707s.113.365428.113.570728-.038.39554-.113.57072c-.075.17519-.177.32643-.306.45371-.129.12729-.28.22651-.454.29768-.173.07117-.359.10676-.556.10676z" fill="#bcbcbc"/><path d="m131.747 39.5495c-2.26 0-4.374-.4026-6.34-1.2077s-3.685-1.9199-5.156-3.3443-2.624-3.1275-3.46-5.1094c-.836-1.9818-1.254-4.1494-1.254-6.5028 0-2.3225.418-4.4746 1.254-6.4564.836-1.9819 1.982-3.6927 3.437-5.1326 1.455-1.44 3.151-2.56247 5.086-3.36759 1.936-.80512 4.018-1.20767 6.248-1.20767 2.725 0 5.194.49545 7.408 1.48636 2.214.99092 4.126 2.5857 5.737 4.7842l-1.162.8361c-1.393-1.9508-3.096-3.3985-5.109-4.34295-2.013-.94447-4.304-1.41669-6.874-1.41669-2.075 0-3.995.37159-5.76 1.11477-1.765.74317-3.298 1.78057-4.599 3.11207-1.3 1.3316-2.314 2.8953-3.042 4.6914-.728 1.796-1.092 3.7623-1.092 5.899 0 2.1366.372 4.1029 1.115 5.899.743 1.796 1.773 3.3598 3.089 4.6913 1.316 1.3316 2.864 2.3689 4.645 3.1121s3.724 1.1148 5.829 1.1148c2.168 0 4.057-.3019 5.667-.9058 1.61-.6038 2.965-1.3857 4.064-2.3456 1.1-.96 1.974-2.0361 2.625-3.2282.65-1.1922 1.099-2.3767 1.347-3.5534h-13.145v-1.3006h14.77c-.247 1.7651-.758 3.4218-1.532 4.9701-.775 1.5483-1.804 2.8875-3.089 4.0178s-2.826 2.0283-4.622 2.694c-1.796.6658-3.824.9987-6.085.9987z" fill="#fff"/><path d="m153.898 7.67233h1.488v32.32767h-1.488z" fill="#fff"/><path d="m29.7064 6.99539h.1858l11.6122 23.22451 11.6587-23.22451h.1858l3.5301 32.23561h-1.3934l-3.0657-27.823-10.9155 21.5988h-.1393l-10.7762-21.6452-3.0656 27.8694h-1.347z" fill="#fff"/><path d="m1.25412 32.6751c.89802 1.7341 2.13664 3.0888 3.71592 4.0642 1.57927.9755 3.39076 1.4632 5.43456 1.4632 2.5392 0 4.4978-.6039 5.8758-1.8115 1.3779-1.2077 2.0669-2.787 2.0669-4.7378 0-.96-.1316-1.8193-.3948-2.5779-.2632-.7587-.6658-1.4554-1.2077-2.0902s-1.2386-1.2309-2.0902-1.7883c-.8515-.5574-1.8502-1.1148-2.9959-1.6722l-2.87985-1.3935c-1.11478-.5573-2.09794-1.0915-2.94951-1.6024-.85157-.511-1.57152-1.0684-2.15987-1.6722-.58836-.6038-1.02962-1.2773-1.3238-2.0205s-.44126-1.6257-.44126-2.6476c0-1.0529.20127-2.0128.60383-2.8799.40256-.867.94446-1.60244 1.62572-2.20628.68125-.60384 1.48636-1.06832 2.41534-1.39347.92898-.32514 1.91988-.48771 2.97273-.48771 1.91987 0 3.53787.3561 4.85387 1.06832 1.3161.71222 2.4541 1.84244 3.414 3.39074l-1.1147.6503c-.8052-1.3006-1.7806-2.2605-2.9263-2.87981-1.1458-.61932-2.5547-.92898-4.22687-.92898-1.827 0-3.31335.53416-4.4591 1.60249-1.14574 1.0683-1.71861 2.4231-1.71861 4.0643 0 .867.12387 1.6102.37159 2.2295.24773.6194.61932 1.1767 1.11478 1.6722.49546.4954 1.12251.9677 1.88118 1.4167s1.66442.9212 2.71726 1.4167l2.83337 1.3934c1.3316.6503 2.4695 1.3006 3.414 1.9509s1.7186 1.347 2.3225 2.0902c.6038.7432 1.0528 1.5483 1.347 2.4153.2942.8671.4412 1.827.4412 2.8799 0 2.3534-.8205 4.2578-2.4617 5.7132-1.6413 1.4554-3.9482 2.1831-6.9209 2.1831-2.50829 0-4.6217-.5651-6.34032-1.6954-1.71862-1.1302-3.073364-2.6243-4.06428-4.4823z" fill="#fff"/></g><path d="m62.5068 37.0078h47.388v2.25657h-47.388z" fill="#e2e2e2" opacity=".25"/><path d="m165.858 37.4591h47.388v2.25657h-47.388z" fill="#e2e2e2" opacity=".25"/></svg>

<svg width="214" height="40" viewBox="0 0 214 40" fill="none" xmlns="http://www.w3.org/2000/svg">
<path fill-rule="evenodd" clip-rule="evenodd" d="M74.3538 31.3663C72.7198 31.3663 71.1822 31.0713 69.741 30.4812C68.2998 29.8911 67.0459 29.0684 65.9792 28.0131C64.9125 26.9577 64.0671 25.7038 63.443 24.2513C62.8189 22.7988 62.5068 21.2215 62.5068 19.5193C62.5068 17.8172 62.8189 16.2399 63.443 14.7873C64.0671 13.3348 64.9125 12.0809 65.9792 11.0256C67.0459 9.97024 68.2998 9.14754 69.741 8.55745C71.1822 7.96737 72.7198 7.67233 74.3538 7.67233C75.9879 7.67233 77.5255 7.96737 78.9667 8.55745C80.4078 9.14754 81.6618 9.97024 82.7284 11.0256C83.7951 12.0809 84.6405 13.3348 85.2647 14.7873C85.8888 16.2399 86.2008 17.8172 86.2008 19.5193C86.2008 21.2215 85.8888 22.7988 85.2647 24.2513C84.6405 25.7038 83.7951 26.9577 82.7284 28.0131C81.6618 29.0684 80.4078 29.8911 78.9667 30.4812C77.5255 31.0713 75.9879 31.3663 74.3538 31.3663Z" fill="#2AB6EF"/>
<path fill-rule="evenodd" clip-rule="evenodd" d="M98.0482 31.3663C96.4141 31.3663 94.8765 31.0713 93.4353 30.4812C91.9942 29.8911 90.7403 29.0684 89.6736 28.0131C88.6069 26.9577 87.7615 25.7038 87.1374 24.2513C86.5132 22.7988 86.2012 21.2215 86.2012 19.5193C86.2012 17.8172 86.5132 16.2399 87.1374 14.7873C87.7615 13.3348 88.6069 12.0809 89.6736 11.0256C90.7403 9.97024 91.9942 9.14754 93.4353 8.55745C94.8765 7.96737 96.4141 7.67233 98.0482 7.67233C99.6823 7.67233 101.22 7.96737 102.661 8.55745C104.102 9.14754 105.356 9.97024 106.423 11.0256C107.489 12.0809 108.335 13.3348 108.959 14.7873C109.583 16.2399 109.895 17.8172 109.895 19.5193C109.895 21.2215 109.583 22.7988 108.959 24.2513C108.335 25.7038 107.489 26.9577 106.423 28.0131C105.356 29.0684 104.102 29.8911 102.661 30.4812C101.22 31.0713 99.6823 31.3663 98.0482 31.3663Z" fill="#2ECC71"/>
<path fill-rule="evenodd" clip-rule="evenodd" d="M177.705 31.3663C176.071 31.3663 174.533 31.0713 173.092 30.4812C171.651 29.8911 170.397 29.0684 169.33 28.0131C168.264 26.9577 167.418 25.7038 166.794 24.2513C166.17 22.7988 165.858 21.2215 165.858 19.5193C165.858 17.8172 166.17 16.2399 166.794 14.7873C167.418 13.3348 168.264 12.0809 169.33 11.0256C170.397 9.97024 171.651 9.14754 173.092 8.55745C174.533 7.96737 176.071 7.67233 177.705 7.67233C179.339 7.67233 180.877 7.96737 182.318 8.55745C183.759 9.14754 185.013 9.97024 186.08 11.0256C187.146 12.0809 187.992 13.3348 188.616 14.7873C189.24 16.2399 189.552 17.8172 189.552 19.5193C189.552 21.2215 189.24 22.7988 188.616 24.2513C187.992 25.7038 187.146 26.9577 186.08 28.0131C185.013 29.0684 183.759 29.8911 182.318 30.4812C180.877 31.0713 179.339 31.3663 177.705 31.3663Z" fill="#E44786"/>
<path fill-rule="evenodd" clip-rule="evenodd" d="M153.898 31.3659C153.936 31.3662 153.973 31.3663 154.011 31.3663C155.645 31.3663 157.183 31.0713 158.624 30.4812C160.065 29.8911 161.319 29.0684 162.386 28.0131C163.452 26.9577 164.298 25.7038 164.922 24.2513C165.546 22.7988 165.858 21.2215 165.858 19.5193C165.858 17.8172 165.546 16.2399 164.922 14.7873C164.298 13.3348 163.452 12.0809 162.386 11.0256C161.319 9.97023 160.065 9.14753 158.624 8.55745C157.183 7.96737 155.645 7.67233 154.011 7.67233C153.973 7.67233 153.936 7.67249 153.898 7.6728V31.3659Z" fill="#EFCB2A"/>
<path fill-rule="evenodd" clip-rule="evenodd" d="M201.399 31.4363C199.765 31.4363 198.228 31.1404 196.786 30.5486C195.345 29.9567 194.091 29.1316 193.025 28.0731C191.958 27.0147 191.113 25.7571 190.488 24.3003C189.864 22.8435 189.552 21.2615 189.552 19.5543C189.552 17.8471 189.864 16.2652 190.488 14.8083C191.113 13.3515 191.958 12.0939 193.025 11.0355C194.091 9.97702 195.345 9.15189 196.786 8.56007C198.228 7.96824 199.765 7.67233 201.399 7.67233C203.033 7.67233 204.571 7.96824 206.012 8.56007C207.453 9.15189 208.707 9.97702 209.774 11.0355C210.841 12.0939 211.686 13.3515 212.31 14.8083C212.934 16.2652 213.246 17.8471 213.246 19.5543C213.246 21.2615 212.934 22.8435 212.31 24.3003C211.686 25.7571 210.841 27.0147 209.774 28.0731C208.707 29.1316 207.453 29.9567 206.012 30.5486C204.571 31.1404 203.033 31.4363 201.399 31.4363Z" fill="#D0021B"/>
<path fill-rule="evenodd" clip-rule="evenodd" d="M154.65 2.85774C154.453 2.85774 154.268 2.82215 154.094 2.75098C153.92 2.67981 153.769 2.58059 153.64 2.4533C153.511 2.32602 153.409 2.17478 153.334 1.99959C153.259 1.82441 153.221 1.63417 153.221 1.42887C153.221 1.22357 153.259 1.03333 153.334 0.858142C153.409 0.682954 153.511 0.53172 153.64 0.404435C153.769 0.277151 153.92 0.177925 154.094 0.106755C154.268 0.0355845 154.453 0 154.65 0C154.847 0 155.033 0.0355845 155.206 0.106755C155.38 0.177925 155.531 0.277151 155.66 0.404435C155.789 0.53172 155.891 0.682954 155.966 0.858142C156.041 1.03333 156.079 1.22357 156.079 1.42887C156.079 1.63417 156.041 1.82441 155.966 1.99959C155.891 2.17478 155.789 2.32602 155.66 2.4533C155.531 2.58059 155.38 2.67981 155.206 2.75098C155.033 2.82215 154.847 2.85774 154.65 2.85774Z" fill="#BCBCBC"/>
<path fill-rule="evenodd" clip-rule="evenodd" d="M131.747 39.5495C129.487 39.5495 127.373 39.1469 125.407 38.3418C123.441 37.5367 121.722 36.4219 120.251 34.9975C118.78 33.5731 117.627 31.87 116.791 29.8881C115.955 27.9063 115.537 25.7387 115.537 23.3853C115.537 21.0628 115.955 18.9107 116.791 16.9289C117.627 14.947 118.773 13.2362 120.228 11.7963C121.683 10.3563 123.379 9.23383 125.314 8.42871C127.25 7.62359 129.332 7.22104 131.562 7.22104C134.287 7.22104 136.756 7.71649 138.97 8.7074C141.184 9.69832 143.096 11.2931 144.707 13.4916L143.545 14.3277C142.152 12.3769 140.449 10.9292 138.436 9.98475C136.423 9.04028 134.132 8.56806 131.562 8.56806C129.487 8.56806 127.567 8.93965 125.802 9.68283C124.037 10.426 122.504 11.4634 121.203 12.7949C119.903 14.1265 118.889 15.6902 118.161 17.4863C117.433 19.2823 117.069 21.2486 117.069 23.3853C117.069 25.5219 117.441 27.4882 118.184 29.2843C118.927 31.0803 119.957 32.6441 121.273 33.9756C122.589 35.3072 124.137 36.3445 125.918 37.0877C127.699 37.8309 129.642 38.2025 131.747 38.2025C133.915 38.2025 135.804 37.9006 137.414 37.2967C139.024 36.6929 140.379 35.911 141.478 34.9511C142.578 33.9911 143.452 32.915 144.103 31.7229C144.753 30.5307 145.202 29.3462 145.45 28.1695H132.305V26.8689H147.075C146.828 28.634 146.317 30.2907 145.543 31.839C144.768 33.3873 143.739 34.7265 142.454 35.8568C141.169 36.9871 139.628 37.8851 137.832 38.5508C136.036 39.2166 134.008 39.5495 131.747 39.5495Z" fill="white"/>
<path fill-rule="evenodd" clip-rule="evenodd" d="M153.898 7.67233H155.386V40H153.898V7.67233Z" fill="white"/>
<path fill-rule="evenodd" clip-rule="evenodd" d="M29.7064 6.99539H29.8922L41.5044 30.2199L53.1631 6.99539H53.3489L56.879 39.231H55.4856L52.4199 11.408L41.5044 33.0068H41.3651L30.5889 11.3616L27.5233 39.231H26.1763L29.7064 6.99539Z" fill="white"/>
<path fill-rule="evenodd" clip-rule="evenodd" d="M1.25412 32.6751C2.15214 34.4092 3.39076 35.7639 4.97004 36.7393C6.54931 37.7148 8.3608 38.2025 10.4046 38.2025C12.9438 38.2025 14.9024 37.5986 16.2804 36.391C17.6583 35.1833 18.3473 33.604 18.3473 31.6532C18.3473 30.6932 18.2157 29.8339 17.9525 29.0753C17.6893 28.3166 17.2867 27.6199 16.7448 26.9851C16.2029 26.3503 15.5062 25.7542 14.6546 25.1968C13.8031 24.6394 12.8044 24.082 11.6587 23.5246L8.77885 22.1311C7.66407 21.5738 6.68091 21.0396 5.82934 20.5287C4.97777 20.0177 4.25782 19.4603 3.66947 18.8565C3.08111 18.2527 2.63985 17.5792 2.34567 16.836C2.05149 16.0928 1.90441 15.2103 1.90441 14.1884C1.90441 13.1355 2.10568 12.1756 2.50824 11.3085C2.9108 10.4415 3.4527 9.70606 4.13396 9.10222C4.81521 8.49838 5.62032 8.0339 6.5493 7.70875C7.47828 7.38361 8.46918 7.22104 9.52203 7.22104C11.4419 7.22104 13.0599 7.57714 14.3759 8.28936C15.692 9.00158 16.83 10.1318 17.7899 11.6801L16.6752 12.3304C15.87 11.0298 14.8946 10.0699 13.7489 9.45059C12.6031 8.83127 11.1942 8.52161 9.52203 8.52161C7.69503 8.52161 6.20868 9.05577 5.06293 10.1241C3.91719 11.1924 3.34432 12.5472 3.34432 14.1884C3.34432 15.0554 3.46819 15.7986 3.71591 16.4179C3.96364 17.0373 4.33523 17.5946 4.83069 18.0901C5.32615 18.5855 5.9532 19.0578 6.71187 19.5068C7.47054 19.9558 8.37629 20.428 9.42913 20.9235L12.2625 22.3169C13.5941 22.9672 14.732 23.6175 15.6765 24.2678C16.621 24.9181 17.3951 25.6148 17.999 26.358C18.6028 27.1012 19.0518 27.9063 19.346 28.7733C19.6402 29.6404 19.7872 30.6003 19.7872 31.6532C19.7872 34.0066 18.9667 35.911 17.3255 37.3664C15.6842 38.8218 13.3773 39.5495 10.4046 39.5495C7.89631 39.5495 5.7829 38.9844 4.06428 37.8541C2.34566 36.7239 0.990916 35.2298 0 33.3718L1.25412 32.6751Z" fill="white"/>
<rect opacity="0.25" x="62.5068" y="37.0078" width="47.388" height="2.25657" fill="#E2E2E2"/>
<rect opacity="0.25" x="165.858" y="37.4591" width="47.388" height="2.25657" fill="#E2E2E2"/>
</svg>
